X:1
T:Title
%%score { ( 1 3 ) | ( 2 4 ) }
L:1/8
Q:1/4=100
M:3/4
K:Eb
V:1 treble nm="Grand Piano"
V:3 treble 
V:2 bass 
V:4 bass 
V:1
 G2 G2 B2 | A4 G2 | [CF]2 [EG]2 A2 | [B,EG]6 | [CEA]2 [EG]2 [Ec]2 | B4 [C=EB]2 | B4 [EF=A]2 | %7
w: H.~Barry * *|||||||
 [DFB]6 | B2 c2 d2 | e4 B2 | =A4 [D_A]2 | G6 | G2 F2 [CA]2 | E4 D2 | E6 |] %15
w: ||||||||
V:2
 [E,B,E]2 [E,B,E]2 [E,_DE]2 | [E,CE]4 [E,B,E]2 | A,,2 z2 D2 | E,6 | C,2 B,,2 A,2 | z2 B,2 _G,2 | %6
 z2 F2 F,2 | B,,6 | [B,DF]2 [=A,CF]2 [_A,B,F]2 | [G,B,E]4 [_G,B,E]2 | [F,CE]4 [B,,B,]2 | [E,B,E]6 | %12
 [=E,B,_D]2 [F,A,C]2 [A,,A,]2 | [B,,G,B,]4 [B,,F,A,]2 | [E,G,]6 |] %15
V:3
 x6 | x6 | z2 B,4 | x6 | x6 | E2 z2 z2 | [DF]2 z2 z2 | x6 | x6 | x6 | x6 | x6 | x6 | x6 | x6 |] %15
V:4
 x6 | x6 | z2 B,,4 | x6 | x6 | G,4 z2 | A,4 z2 | x6 | x6 | x6 | x6 | x6 | x6 | x6 | x6 |] %15

